contributed-vectors/turtl_notes.svg

<svg xmlns="http://www.w3.org/2000/svg" id="svg16" version="1.1" viewBox="0 0 192 192"><defs id="defs4"><style id="style2">.a{fill:none;stroke:#b1b5bd;stroke-linecap:round;stroke-linejoin:round;isolation:isolate;opacity:.63}</style></defs><path id="path914" d="M8 120v24l20 20h8l8 8h16l8 8h56l8-8h16l8-8h8l20-20v-24l-4-4-8 8h-4l-8 8h-20v8h-16v8H68v-8H52l-8-8H32l-8-8h-4l-8-8z" style="fill:#fff;stroke:none;stroke-width:1px;stroke-linecap:butt;stroke-linejoin:miter;stroke-opacity:1"/><path id="path912" d="m12 116 8 8 16 8h12l12 8h4l8 8h48l8-8h8l8-8h16l8-8h4l8-8V84l-4-4-12-16V44l-8-4-4-12-28-8-4-8H72L60 24l-24 4v16h-8v24h-8v16h-8z" style="fill:#98dc9a;stroke:none;stroke-width:1px;stroke-linecap:butt;stroke-linejoin:miter;stroke-opacity:1"/><path id="rect835" d="M64 8v8H40v8h-8v16h-8v24h-8v16H8v40h8V88h32v-8H24v-8h8V48h8V32h24v-8h8v-8h48v8h8v8h24v16h8v24h8v8h-24v8h32v32h8V80h-8V64h-8V40h-8V24h-8v-8h-24V8H64zm112 112h-16v8h-16v-24h-8v32h-16v8H72v-8H56v-32h-8v24H32v-8H16v8h8v8h24v8h16v8h64v-8h16v-8h24v-8h8v-8zM56 104h8v-8h-8v8zm8-8h64v-8H64v8zm0-8v-8h-8v8h8zm-8-8V48h-8v32h8zm0-32h8v-8h-8v8zm8-8h64v-8H64v8zm64 0v8h8v-8h-8zm8 8v32h8V48h-8zm0 32h-8v8h8v-8zm-8 16v8h8v-8h-8zM8 144v8h8v-8H8zm8 8v8h8v-8h-8zm8 8v8h16v-8H24zm16 8v8h24v-8H40zm24 8v8h64v-8H64zm64 0h24v-8h-24v8zm24-8h16v-8h-16v8zm16-8h8v-8h-8v8zm8-8h8v-8h-8v8z" style="opacity:1;vector-effect:none;fill:#56595b;fill-opacity:1;fill-rule:evenodd;stroke:none;stroke-width:13.85640621;stroke-linecap:round;stroke-linejoin:round;stroke-miterlimit:4;stroke-dasharray:none;paint-order:stroke fill markers"/></svg>

<?xml version="1.0" encoding="UTF-8" standalone="no"?>
<svg
   xmlns:dc="http://purl.org/dc/elements/1.1/"
   xmlns:cc="http://creativecommons.org/ns#"
   xmlns:rdf="http://www.w3.org/1999/02/22-rdf-syntax-ns#"
   xmlns:svg="http://www.w3.org/2000/svg"
   xmlns="http://www.w3.org/2000/svg"
   xmlns:sodipodi="http://sodipodi.sourceforge.net/DTD/sodipodi-0.dtd"
   xmlns:inkscape="http://www.inkscape.org/namespaces/inkscape"
   viewBox="0 0 192 192"
   version="1.1"
   id="svg16"
   sodipodi:docname="turtl_notes.svg"
   inkscape:version="0.92.4 (5da689c313, 2019-01-14)">
  <metadata
     id="metadata20">
    <rdf:RDF>
      <cc:Work
         rdf:about="">
        <dc:format>image/svg+xml</dc:format>
        <dc:type
           rdf:resource="http://purl.org/dc/dcmitype/StillImage" />
        <dc:title></dc:title>
      </cc:Work>
    </rdf:RDF>
  </metadata>
  <sodipodi:namedview
     pagecolor="#ffffff"
     bordercolor="#666666"
     borderopacity="1"
     objecttolerance="10"
     gridtolerance="10"
     guidetolerance="10"
     inkscape:pageopacity="0"
     inkscape:pageshadow="2"
     inkscape:window-width="1920"
     inkscape:window-height="1017"
     id="namedview18"
     showgrid="true"
     inkscape:zoom="3.4766083"
     inkscape:cx="55.351925"
     inkscape:cy="82.169494"
     inkscape:window-x="-8"
     inkscape:window-y="-8"
     inkscape:window-maximized="1"
     inkscape:current-layer="svg16">
    <inkscape:grid
       type="xygrid"
       id="grid827"
       spacingx="4"
       spacingy="4" />
  </sodipodi:namedview>
  <defs
     id="defs4">
    <style
       id="style2">.a{fill:none;stroke:#b1b5bd;stroke-linecap:round;stroke-linejoin:round;isolation:isolate;opacity:0.63;}</style>
  </defs>
  <path
     style="fill:#ffffff;stroke:none;stroke-width:1px;stroke-linecap:butt;stroke-linejoin:miter;stroke-opacity:1"
     d="m 8,120 v 24 l 20,20 h 8 l 8,8 h 16 l 8,8 h 56 l 8,-8 h 16 l 8,-8 h 8 l 20,-20 v -24 l -4,-4 -8,8 h -4 l -8,8 h -20 v 8 h -16 v 8 H 68 v -8 H 52 l -8,-8 H 32 l -8,-8 h -4 l -8,-8 z"
     id="path914"
     inkscape:connector-curvature="0" />
  <path
     style="fill:#98dc9a;stroke:none;stroke-width:1px;stroke-linecap:butt;stroke-linejoin:miter;stroke-opacity:1"
     d="m 12,116 8,8 16,8 h 12 l 12,8 h 4 l 8,8 h 48 l 8,-8 h 8 l 8,-8 h 16 l 8,-8 h 4 l 8,-8 V 84 L 176,80 164,64 V 44 l -8,-4 -4,-12 -28,-8 -4,-8 H 72 L 60,24 36,28 v 16 h -8 v 24 h -8 v 16 h -8 z"
     id="path912"
     inkscape:connector-curvature="0" />
  <path
     style="opacity:1;vector-effect:none;fill:#56595b;fill-opacity:1;fill-rule:evenodd;stroke:none;stroke-width:13.85640621;stroke-linecap:round;stroke-linejoin:round;stroke-miterlimit:4;stroke-dasharray:none;paint-order:stroke fill markers"
     d="M 64 8 L 64 16 L 40 16 L 40 24 L 32 24 L 32 40 L 24 40 L 24 48 L 24 64 L 16 64 L 16 80 L 8 80 L 8 120 L 16 120 L 16 88 L 24 88 L 48 88 L 48 80 L 24 80 L 24 72 L 32 72 L 32 48 L 40 48 L 40 40 L 40 32 L 64 32 L 64 24 L 72 24 L 72 16 L 96 16 L 120 16 L 120 24 L 128 24 L 128 32 L 152 32 L 152 40 L 152 48 L 160 48 L 160 72 L 168 72 L 168 80 L 144 80 L 144 88 L 168 88 L 176 88 L 176 120 L 184 120 L 184 80 L 176 80 L 176 64 L 168 64 L 168 48 L 168 40 L 160 40 L 160 24 L 152 24 L 152 16 L 128 16 L 128 8 L 96 8 L 64 8 z M 176 120 L 160 120 L 160 128 L 144 128 L 144 104 L 136 104 L 136 128 L 136 136 L 120 136 L 120 144 L 96 144 L 72 144 L 72 136 L 56 136 L 56 128 L 56 104 L 48 104 L 48 128 L 32 128 L 32 120 L 16 120 L 16 128 L 24 128 L 24 136 L 32 136 L 48 136 L 48 144 L 64 144 L 64 152 L 96 152 L 128 152 L 128 144 L 144 144 L 144 136 L 160 136 L 168 136 L 168 128 L 176 128 L 176 120 z M 56 104 L 64 104 L 64 96 L 56 96 L 56 104 z M 64 96 L 96 96 L 128 96 L 128 88 L 96 88 L 64 88 L 64 96 z M 64 88 L 64 80 L 56 80 L 56 88 L 64 88 z M 56 80 L 56 48 L 48 48 L 48 80 L 56 80 z M 56 48 L 64 48 L 64 40 L 56 40 L 56 48 z M 64 40 L 96 40 L 128 40 L 128 32 L 96 32 L 64 32 L 64 40 z M 128 40 L 128 48 L 136 48 L 136 40 L 128 40 z M 136 48 L 136 80 L 144 80 L 144 48 L 136 48 z M 136 80 L 128 80 L 128 88 L 136 88 L 136 80 z M 128 96 L 128 104 L 136 104 L 136 96 L 128 96 z M 8 144 L 8 152 L 16 152 L 16 144 L 8 144 z M 16 152 L 16 160 L 24 160 L 24 152 L 16 152 z M 24 160 L 24 168 L 40 168 L 40 160 L 24 160 z M 40 168 L 40 176 L 64 176 L 64 168 L 40 168 z M 64 176 L 64 184 L 96 184 L 128 184 L 128 176 L 96 176 L 64 176 z M 128 176 L 152 176 L 152 168 L 128 168 L 128 176 z M 152 168 L 168 168 L 168 160 L 152 160 L 152 168 z M 168 160 L 176 160 L 176 152 L 168 152 L 168 160 z M 176 152 L 184 152 L 184 144 L 176 144 L 176 152 z "
     id="rect835" />
</svg>
